X: 90
T: Lazy Sheep
C: words: Ann Taylor
C: music: John Heathcote
Q: "Andantino."
%R: air, march
B: "The Everyday Song Book", 1927
F: http://www.library.pitt.edu/happybirthday/pdf/The_Everyday_Song_Book.pdf
Z: 2017 John Chambers <jc:trillian.mit.edu>
M: 2/4
L: 1/4
K: Ab
% - - - - - - - - - - - - - - - - - - - - - - - - - - - - -
[| c B | e d | c B | c2 | c B | e d | c B c2 |
w: 1.~La-zy sheep, pray tell me why      In the pleas-ant field you lie,
w: 2.~"True, it seems a pleas-ant thing, Nip-ping dai-sies in the spring;
w: 3.~"Then the far-mer comes at last,   When the mer-ry spring is past,
%
A A | f e | d c | B2 | A E | F G | A B | A2 |]
w: Eat-ing grass and dai-sies white From the morn-ing to the night?
w: But what chil-ly nights I pass   On the cold and dew-y grass.
w: Cuts my wool-y fleece a-way      For your coat on win-t'ry day."
% - - - - - - - - - - - - - - - - - - - - - - - - - - - - -

%%sep 1 1 500
%%sep 1 1 500

